SmartNotes/img/footer-icons/telegram.svg

<svg width="32px" height="32px" viewBox="0 0 32 32" fill="none" xmlns="http://www.w3.org/2000/svg">
<g clip-path="url(#clip0)">
<path d="M0.553341 14.928L8.37867 18.828C8.68134 18.9774 9.03867 18.9667 9.32801 18.7974L16.2933 14.748L12.0773 18.484C11.8627 18.6747 11.74 18.9467 11.74 19.2334V28.3334C11.74 29.2934 12.9653 29.6974 13.54 28.9347L16.9227 24.4374L25.288 29.2014C25.8747 29.5387 26.6267 29.2 26.7627 28.5294L31.98 2.52935C32.136 1.74802 31.3587 1.11068 30.636 1.40135L0.636007 13.1014C-0.169326 13.416 -0.221326 14.5427 0.553341 14.928ZM29.66 3.92935L25.0747 26.7787L17.148 22.264C16.716 22.0174 16.16 22.1267 15.8533 22.532L13.74 25.3414V19.6827L25.1413 9.58136C26.044 8.78269 25.0067 7.36269 23.976 7.96802L8.78934 16.7974L3.46667 14.1454L29.66 3.92935Z" fill="#BCBFBF"/>
</g>
<defs>
<clipPath id="clip0">
<rect width="32" height="32" fill="white"/>
</clipPath>
</defs>
</svg>

<svg width="32" height="32" fill="none" xmlns="http://www.w3.org/2000/svg"><g clip-path="url(#clip0)"><path d="M.553 14.928l7.826 3.9c.302.15.66.139.949-.03l6.965-4.05-4.216 3.736c-.214.19-.337.463-.337.75v9.1c0 .96 1.225 1.363 1.8.6l3.383-4.497 8.365 4.764a1 1 0 001.475-.672l5.217-26c.156-.781-.621-1.418-1.344-1.128l-30 11.7c-.805.315-.857 1.442-.083 1.827zM29.66 3.929l-4.585 22.85-7.927-4.515a1.002 1.002 0 00-1.295.268l-2.113 2.81v-5.66l11.401-10.1c.903-.8-.134-2.22-1.165-1.614l-15.187 8.83-5.322-2.653L29.66 3.93z" fill="#BCBFBF"/></g><defs><clipPath id="clip0"><path fill="#fff" d="M0 0h32v32H0z"/></clipPath></defs></svg>
